X:1
T:Title
%%score { ( 1 3 5 ) | ( 2 4 6 ) }
L:1/8
M:4/4
K:G
V:1 treble nm="Grand Piano"
V:3 treble 
V:5 treble 
V:2 bass 
V:4 bass 
V:6 bass 
V:1
 z4 z2[Q:1/4=100] D2 | G2 G2 G2 B2 | G6 z2 | A2 A2 A2 c2 | [DF]2 z2 z4 | [Gd]2 [Fd]2 d2 d2 | %6
 d2 c4 A2 | G4 F4 |[M:3/4] [G,B,DG]6 |[M:1/4] z2 |[M:4/4] z2 G4 z2 | z2 A4 z2 | B2 d2 d2 ^c2 | %13
 [Fd]6 z2 | z2 G4 z2 | z2 A4 z2 | z .d3 z .c3 | [B,DG]6 z2 |] %18
V:2
 z4 z2 D,2 | G,,2 G,,2 B,,2 D,2 | [B,D]2 B,2 B,2 G,2 | D,2 D,2[K:treble] [DF]2- [A,DF]2 | %4
 z2 D2 D2 D,C, | [B,,G,]2 [D,C]2[K:treble] [G,B,G]2 [B,=FG]2 | =F2 z2 z4[K:bass] | %7
 B,2 [G,B,]2 [D,A,D]2 [D,C]2 |[M:3/4] G,,6 |[M:1/4] D>D |[M:4/4] z2 [B,D]>B, [G,B,][G,B,] z2 | %11
 z2[K:treble] [CF]>C[K:bass] [D,C][D,C] [D,A,]>[D,D] | [G,DG]2 [B,DG]2 [A,DF]2[K:bass] [A,E]2 | %13
 [D,A,]2 C>C B,2 [A,C]2 | z2 [B,D]>B, [G,B,][G,B,] z2 | %15
 z2[K:treble] [CF]>C[K:bass] [D,C][D,C] [D,A,]>[D,D] | [G,G]2 z B, E- [A,E]2[K:bass] [CD] | %17
 [G,,G,]6 z2 |] %18
V:3
 x8 | [B,D]4 [G,D]4 | z2 D2 D2 [B,D]2 | [DF]4 z4 | A2- [FA-]2 [FA]2 [F,D]2 | x8 | x8 | %7
 z2 D2 z2 D2 |[M:3/4] x6 |[M:1/4] x2 |[M:4/4] G2 z z/ D/ DD B>G | A2 z z/ F/ FF [Fc]>[FA] | x8 | %13
 z2 E>E D2 D>D | G2 z z/ D/ DD B>G | A2 z z/ F/ FF [Fc]>[FA] | .B2 z d .d2 z ^F | x8 |] %18
V:4
 x8 | x8 | G,6 z2 | z4[K:treble] F,2 z2 | D,6 z2 | x4[K:treble] x4 | [CG]2- [CEG]4[K:bass] C2 | %7
 x8 |[M:3/4] x6 |[M:1/4] x2 |[M:4/4] G,4 z4 | D,4[K:treble][K:bass] z4 | x6[K:bass] x2 | x8 | %14
 G,4 z4 | D,4[K:treble][K:bass] z4 | D .B,3 .[A,B,]2 z2[K:bass] | x8 |] %18
V:5
 x8 | x8 | x8 | x8 | x8 | x8 | x8 | x8 |[M:3/4] x6 |[M:1/4] x2 |[M:4/4] z2 z G, z4 | z2 z D, z4 | %12
 x8 | x8 | z2 z G, z4 | z2 z D, z4 | z2 =F2 z2 D,2 | x8 |] %18
V:6
 x8 | x8 | x8 | x4[K:treble] x4 | x8 | x4[K:treble] x4 | x6[K:bass] x2 | x8 |[M:3/4] x6 | %9
[M:1/4] x2 |[M:4/4] x8 | x2[K:treble] x2[K:bass] x4 | x6[K:bass] x2 | x8 | x8 | %15
 x2[K:treble] x2[K:bass] x4 | z2 ^G,2 z4[K:bass] | x8 |] %18

